X:8
T:The Radar Racketeer
T:Harmony 1
C:Murray Blair & Adrian Melvin
L:1/8
R:Jig
M:6/8
Q:"114 bpm"
K:D
[| {g}f2 B {g}fed | {g}AeA {g}edc | {g}Bf{e}f {g}fed | {g}e2 (f f)ed |
{g}Bf{e}f {g}fed | {g}AeA {g}edc | {g}Bde {g}faf | {g}edc {g}B3 |
{g}f2 B {g}fed | {g}AeA {g}edc | {g}Bf{e}f {g}fed | {g}c2 (d d)cB |
{g}B6 | {g}c6 | {g}B6 | {g}cBe {g}f3 |
[|:{g}f6 | {g}e6 | d3 B3 | {g}ABc {g}d3 |
[1 {g}fB(f f3) | {g}eA(e e3) | {g}dBc {g}d2 a | g3 f3 :|]
[2 {g}fB(f f3) [M:9/8] | {g}eA(e e3) {g}Bde [M:6/8] | {g}f2 a2 g2 [Q:1/4=70] | {a}f6 |]

